X:35
%%topspace -50
T: Mississippi Sawyer
M: 4/4
L: 1/8
K: D
 fg |"D"a2af a2af |a2af  ab af |"A7"g2ge g2ge |g2ge  gage |
"D"f2fe f2fe |"D"de fg  agfg | "A"afed  cABc | "D"Addd d4:|
|:"D"f2fe f2fe|f2fe dfed |"A"c2cB c2cB|"A"c2cB "A7"Agfe |
"D"f2fe f2fe| defg  agfg | "A"afed  cABc | "D"Addd d4:| 

